public/icons/gps.svg

<svg width="24" height="24" viewBox="0 0 24 24" fill="none" xmlns="http://www.w3.org/2000/svg">
<path fill-rule="evenodd" clip-rule="evenodd" d="M12 1C12.5523 1 13 1.44772 13 2V4C13 4.02071 12.9994 4.04127 12.9981 4.06166C16.6184 4.51223 19.4878 7.38165 19.9383 11.0019C19.9587 11.0006 19.9793 11 20 11H22C22.5523 11 23 11.4477 23 12C23 12.5523 22.5523 13 22 13H20C19.9793 13 19.9587 12.9994 19.9383 12.9981C19.4878 16.6184 16.6184 19.4878 12.9981 19.9383C12.9994 19.9587 13 19.9793 13 20V22C13 22.5523 12.5523 23 12 23C11.4477 23 11 22.5523 11 22V20C11 19.9793 11.0006 19.9587 11.0019 19.9383C7.38165 19.4878 4.51223 16.6184 4.06166 12.9981C4.04127 12.9994 4.02071 13 4 13H2C1.44772 13 1 12.5523 1 12C1 11.4477 1.44772 11 2 11H4C4.02071 11 4.04127 11.0006 4.06166 11.0019C4.51223 7.38165 7.38164 4.51223 11.0019 4.06166C11.0006 4.04127 11 4.02071 11 4V2C11 1.44772 11.4477 1 12 1ZM12 15C13.6569 15 15 13.6569 15 12C15 10.3431 13.6569 9 12 9C10.3431 9 9 10.3431 9 12C9 13.6569 10.3431 15 12 15Z" fill="#1574E5"/>
</svg>

<svg xmlns="http://www.w3.org/2000/svg" width="24" height="24" fill="none"><path fill="#1574E5" fill-rule="evenodd" d="M12 1a1 1 0 0 1 1 1v2q0 .03-.002.062c3.62.45 6.49 3.32 6.94 6.94L20 11h2a1 1 0 1 1 0 2h-2l-.062-.002a8.004 8.004 0 0 1-6.94 6.94L13 20v2a1 1 0 1 1-2 0v-2q0-.03.002-.062a8.004 8.004 0 0 1-6.94-6.94L4 13H2a1 1 0 1 1 0-2h2q.03 0 .062.002a8.004 8.004 0 0 1 6.94-6.94L11 4V2a1 1 0 0 1 1-1m0 14a3 3 0 1 0 0-6 3 3 0 0 0 0 6" clip-rule="evenodd"/></svg>
